brandFactory_export/2.Regular/Escudo antivirus _2Regular.svg

<?xml version="1.0" encoding="UTF-8"?>
<svg width="24px" height="24px" viewBox="0 0 24 24" version="1.1" xmlns="http://www.w3.org/2000/svg" xmlns:xlink="http://www.w3.org/1999/xlink">
    <title>2.Regular/Escudo antivirus _2Regular</title>
    <g id="Symbols" stroke="none" stroke-width="1" fill="none" fill-rule="evenodd">
        <g id="2.Regular/Escudo-antivirus-_2Regular" fill="#5CB615" fill-rule="nonzero">
            <path d="M20.7092437,14.7462185 C21.1428571,12.194958 21.2168067,6.68907563 21.2235294,4.60504202 C19.2134454,4.70252101 17.9529412,3.86554622 16.7361345,3.05210084 C15.5294118,2.24201681 14.389916,1.4789916 12.3495798,1.47563025 L12.3428571,1.47563025 C10.302521,1.47563025 9.16302521,2.23865546 7.95294118,3.05210084 C6.7394958,3.86554622 5.49915966,4.71932773 3.46890756,4.60504202 C3.4789916,6.68907563 3.55294118,12.1983193 3.99327731,14.7462185 C4.48403361,17.5932773 9.91596639,20.8571429 12.3462185,22.0705882 C14.7798319,20.8537815 20.2218487,17.5932773 20.7092437,14.7462185 L20.7092437,14.7462185 Z M22.6858551,3.77815126 C22.6858551,4.10084034 22.7092437,11.707563 22.1478992,14.9983193 C21.4151261,19.2605042 13.5563025,23.1260504 12.6621849,23.5529412 C12.5647059,23.6 12.4571429,23.6235294 12.3529412,23.6235294 C12.2453782,23.6235294 12.1411765,23.6 12.0403361,23.5529412 C11.1462185,23.1260504 3.29747899,19.2605042 2.56470588,14.9983193 C1.99663866,11.707563 2.01671807,4.10084034 2.01671807,3.77815126 C2.01671807,3.55294118 2.1210084,3.33781513 2.29915966,3.2 C2.47731092,3.06218487 2.70588235,3.01176471 2.92436975,3.06554622 C4.85378151,3.37478992 5.86890756,2.68571429 7.15966387,1.81848739 C8.4302521,0.964705882 9.87563025,0 12.3529412,0 L12.3596639,0 C14.8369748,0.00336134454 16.2789916,0.968067227 17.5495798,1.82184874 C18.8403361,2.68571429 19.8621849,3.37142857 21.8117647,3.06218487 C22.0201681,3.02857143 22.2521008,3.08571429 22.4168067,3.22689076 C22.5714286,3.36470588 22.6823529,3.56302521 22.6858551,3.77815126 Z M12.3495798,15.3613445 C14.2252101,15.3613445 14.7361345,14.6621849 14.7361345,12.107563 C14.7361345,10.507563 14.5109244,9.65042017 13.9764706,9.24369748 C13.6302521,8.98151261 13.0991597,8.85378151 12.3462185,8.85378151 C11.589916,8.85378151 11.0521008,8.98487395 10.7092437,9.25042017 C10.1848739,9.65714286 9.95966387,10.5109244 9.95966387,12.107563 C9.96302521,14.6621849 10.4739496,15.3613445 12.3495798,15.3613445 Z M12.3529412,6.91092437 C10.7529412,6.91092437 10.7529412,7.24033613 10.7529412,7.69747899 C10.7529412,7.70420168 10.7563025,7.71092437 10.7563025,7.71764706 C11.210084,7.56302521 11.7310924,7.48235294 12.3495798,7.48235294 C12.9747899,7.48235294 13.4991597,7.56638655 13.9529412,7.7210084 C13.9529412,7.71092437 13.9563025,7.70756303 13.9563025,7.69747899 C13.9529412,7.24033613 13.9529412,6.91092437 12.3529412,6.91092437 Z M15.794958,6.91428571 C15.7747899,6.53445378 16.0605042,6.21176471 16.4369748,6.19159664 C16.8201681,6.19495798 17.1327731,6.4605042 17.1529412,6.84369748 L17.2302521,8.31596639 C17.2470588,8.63193277 17.0487395,8.91764706 16.7495798,9.01176471 L15.6840336,9.34117647 C15.8890756,9.83193277 15.9966387,10.3865546 16.0504202,10.9512605 L16.8672269,10.9512605 C17.2436975,10.9512605 17.5495798,11.2605042 17.5495798,11.6403361 L17.5495798,12.6184874 C17.5495798,12.9983193 17.2436975,13.307563 16.8672269,13.307563 C16.4907563,13.307563 16.1882353,12.9983193 16.1882353,12.6184874 L16.1882353,12.3294118 L16.0941176,12.3294118 C16.087395,13.0285714 16.0336134,13.707563 15.8722689,14.3159664 L16.7495798,14.5848739 C17.0487395,14.6789916 17.2470588,14.9647059 17.2302521,15.2806723 L17.1529412,16.7529412 C17.1327731,17.1193277 16.8336134,17.405042 16.4739496,17.405042 L16.4369748,17.405042 C16.0605042,17.3848739 15.7747899,17.0621849 15.794958,16.6823529 L15.8453782,15.7478992 L15.287395,15.5764706 C14.7394958,16.292437 13.8319328,16.7462185 12.3495798,16.7462185 C10.8605042,16.7462185 9.95630252,16.2890756 9.40840336,15.5697479 L8.82689076,15.7478992 L8.87731092,16.6823529 C8.89747899,17.0621849 8.60840336,17.3848739 8.23529412,17.405042 L8.19831933,17.405042 C7.83865546,17.405042 7.5394958,17.1193277 7.51932773,16.7529412 L7.44201681,15.2806723 C7.42521008,14.9647059 7.62352941,14.6789916 7.92268908,14.5848739 L8.82352941,14.3092437 C8.66554622,13.7042017 8.61176471,13.0285714 8.60504202,12.3327731 L8.51092437,12.3327731 L8.51092437,12.6218487 C8.51092437,13.0016807 8.20504202,13.3109244 7.83193277,13.3109244 C7.45546218,13.3109244 7.14957983,13.0016807 7.14957983,12.6218487 L7.14957983,11.6436975 C7.14957983,11.2638655 7.45546218,10.9546218 7.83193277,10.9546218 L8.6487395,10.9546218 C8.70252101,10.389916 8.80672269,9.84201681 9.01176471,9.3512605 L7.92268908,9.01512605 C7.62352941,8.9210084 7.42521008,8.63529412 7.44201681,8.31932773 L7.51932773,6.84705882 C7.5394958,6.46722689 7.86554622,6.20504202 8.23529412,6.19495798 C8.61176471,6.21512605 8.89747899,6.54117647 8.87731092,6.91764706 L8.82689076,7.85210084 L9.42184874,8.03697479 C9.41176471,7.92941176 9.39495798,7.81848739 9.39495798,7.70084034 C9.39495798,6.47394958 10.0638655,5.95630252 10.8067227,5.72436975 C10.6218487,5.45882353 10.6352941,5.08907563 10.8705882,4.85042017 C11.1361345,4.58151261 11.5663866,4.58151261 11.8319328,4.85042017 L12.3092437,5.33109244 C12.3193277,5.34117647 12.3226891,5.35798319 12.3327731,5.36806723 C12.3428571,5.35462185 12.3462185,5.34117647 12.3596639,5.33109244 L12.8369748,4.85042017 C13.102521,4.58151261 13.5327731,4.58151261 13.7983193,4.85042017 C14.0336134,5.08571429 14.0470588,5.44537815 13.8722689,5.71428571 C14.6285714,5.93613445 15.3210084,6.45378151 15.3210084,7.70084034 C15.3210084,7.81512605 15.307563,7.91932773 15.2941176,8.02689076 L15.8521008,7.85546218 L15.794958,6.91428571 L15.794958,6.91428571 Z M12.3092437,9.85546218 C12.6857143,9.85546218 12.9882353,10.1647059 12.9882353,10.5445378 L12.9882353,14.2084034 C12.9882353,14.5882353 12.6857143,14.897479 12.3092437,14.897479 C11.9327731,14.897479 11.6302521,14.5882353 11.6302521,14.2084034 L11.6302521,10.5445378 C11.6302521,10.1647059 11.9361345,9.85546218 12.3092437,9.85546218 Z" id="Escudo-antivirus-_2Regular"></path>
        </g>
    </g>
</svg>

<svg width="24" height="24" viewBox="0 0 24 24" xmlns="http://www.w3.org/2000/svg"><path d="M20.71 14.746c.433-2.551.507-8.057.514-10.141-2.01.098-3.271-.74-4.488-1.553-1.207-.81-2.346-1.573-4.386-1.576h-.007c-2.04 0-3.18.763-4.39 1.576-1.214.814-2.454 1.667-4.484 1.553.01 2.084.084 7.593.524 10.141.491 2.847 5.923 6.111 8.353 7.325 2.434-1.217 7.876-4.478 8.363-7.325zm1.976-10.968c0 .323.023 7.93-.538 11.22-.733 4.263-8.592 8.128-9.486 8.555a.717.717 0 01-.622 0c-.894-.427-8.743-4.292-9.475-8.555-.568-3.29-.548-10.897-.548-11.22a.733.733 0 01.907-.712c1.93.309 2.945-.38 4.236-1.248C8.43.965 9.876 0 12.353 0h.007c2.477.003 3.919.968 5.19 1.822 1.29.864 2.312 1.55 4.262 1.24a.761.761 0 01.605.165.77.77 0 01.269.551zM12.35 15.361c1.875 0 2.386-.699 2.386-3.253 0-1.6-.225-2.458-.76-2.864-.346-.262-.877-.39-1.63-.39-.756 0-1.294.13-1.637.396-.524.407-.75 1.26-.75 2.858.004 2.554.515 3.253 2.39 3.253zm.003-8.45c-1.6 0-1.6.33-1.6.786 0 .007.003.014.003.02.454-.154.975-.235 1.594-.235.625 0 1.15.084 1.603.239 0-.01.003-.013.003-.024-.003-.457-.003-.786-1.603-.786zm3.442.003a.682.682 0 01.642-.722c.383.003.696.269.716.652l.077 1.472a.69.69 0 01-.48.696l-1.066.33c.205.49.313 1.045.366 1.61h.817c.377 0 .683.309.683.688v.978c0 .38-.306.69-.683.69a.684.684 0 01-.679-.69v-.289h-.094c-.007.7-.06 1.379-.222 1.987l.878.269c.299.094.497.38.48.696l-.077 1.472a.685.685 0 01-.68.652h-.036a.682.682 0 01-.642-.723l.05-.934-.558-.172c-.548.716-1.455 1.17-2.937 1.17-1.49 0-2.394-.457-2.942-1.176l-.581.178.05.934a.684.684 0 01-.642.723h-.037a.685.685 0 01-.679-.652l-.077-1.472a.69.69 0 01.48-.696l.902-.276c-.158-.605-.212-1.28-.219-1.976h-.094v.289c0 .38-.306.689-.68.689a.686.686 0 01-.681-.69v-.977c0-.38.305-.69.682-.69h.817c.054-.564.158-1.112.363-1.603l-1.09-.336a.69.69 0 01-.48-.696l.077-1.472c.02-.38.347-.642.716-.652.377.02.662.346.642.723l-.05.934.595.185c-.01-.108-.027-.219-.027-.336 0-1.227.669-1.745 1.412-1.977a.687.687 0 01.064-.874.674.674 0 01.96 0l.478.481c.01.01.014.027.024.037.01-.013.013-.027.027-.037l.477-.48a.674.674 0 01.961 0 .686.686 0 01.074.863c.757.222 1.449.74 1.449 1.987 0 .114-.013.218-.027.326l.558-.172-.057-.94zm-3.486 2.941c.377 0 .68.31.68.69v3.663c0 .38-.303.69-.68.69a.684.684 0 01-.679-.69v-3.663c0-.38.306-.69.68-.69z" fill="#5CB615" fill-rule="nonzero"/></svg>
